!!!OTL: An der Quelle sa&szlig; der Knabe (3-16), S. 42f
!!!id: K1153
**kern
*clefG2
*k[b-e-]
*B-:
{8dd
8cc
=1
4.b-
8b-
4.b-
8a
=2
8a
8g
4g}
4r
=3
{8g
8g
=4
4.f
8f
4ee-
4a
=5
2b-}
4r
=6
{8dd
8cc
=7
4.b-
8b-
4.b-
8a
=8
8a
8g
4g}
4r
=9
{8g
8g
=10
4.f
8f
4ee-
4a
=11
2b-}
4r
=12
{8a
8b-
=13
4cc
4cc
4.ff
8ee-
=14
8cc
8dd
4b-}
4r
=15
{8cc
8dd
=16
8.ee-
16dd
4cc
8.dd
8cc
8.b-
=17
2cc}
4r
=18
{8dd
8cc
=19
4.b-
8b-
4.b-
8a
=20
8a
8g
4g}
4r
=21
{8g
8g
=22
4.f
8f
4ee-
4a
=23
2b-}
4r
=24
{8a
8b-
=25
4cc
4cc
4.ff
8ee-
=26
8cc
8dd
4b-}
4r
=27
{8cc
8dd
=28
8.ee-
16dd
4cc
8.dd
8cc
8.b-
=29
2cc}
4r
=30
{8dd
8cc
=31
4.b-
8b-
4.b-
8a
=32
8a
8g
4g}
4r
=33
{8g
8g
=34
4.f
8f
4ee-
4a
=35
2b-}
4r
==
*-
!!!minrhy: 16
!!!meters: 4/4 ]  ZZ[12
!!!cut: An der Quelle sa&szlig; der Knabe (3-16), S. 42f
!!!reg: Luxemburg
!!!trd: KINTZELE, Guillaume: An der Ucht, Bd. 3 Luxemburg 1928
!!!rhy1: X_X_  X__.X_X__.X_  X_X_X__0_   (x2)
!!!rhy2: X_X_  X__.X_X__X__  X___0_
!!!key: K1153  16 Bb 4/4 ]  ZZ[12
!!!mod: HEPTATONIK IONISCH]  AMBITUS[8
!!!kad: -61-6112-6112-61
!!!akz: 11-7_-541_11-7_-541_252_432_11-7_-541_252_432_11-7_-541_
!!!fot: 'a__b__a__b__c__d__a__b__c__d__a__b__
!!!for: 'a__b__a__b__c__d__a__b__c__d__a__b__
!!!fok: '\__^a_\__^a_^a_^__\__^a_^a_^__\__^a_
!! PHRAS[AUFTAKTIG]
!!!fkt: Brautsuche
!!!bem: in der Quelle mit einer 2. Stimme versehen
!! KINTZELE
!! PR[38] 2K[7] 2G[3] 3K[0] 3G[3] 4A[8] 4Ü[0] 5A[0] 6K[2] 6G[0]
!! 7K[0] 7G[0] 8A[0] MEHR[0] SI[24] ABS[95] SR[11] SP[14]
!! ST[31] 2k[14] 2g[19] 3k[2] 3g[0] 4d[0] 4ü[0] 5d[3] 6k[0] 6g[0]
!! 7k[0] 7g[0] 8d[0] mehr[0] si[38] dm[-14] sr[33] sp[5]
!! 1F[15] 2F[53] 3F[12] 4F[0] LF[0] 2P[11] 3P[8] 4P[0] TRI[0] DF[5] AB[98]
!! TF[0] U3K[0] U3[0] U4[0] U4Ü[0] U5[3] U6K[0] U6[4] U7K[0] U7[7]
!! N1[19] N2K[0] N2[24] N3K[0] N3[30] N4[8] N4Ü[0] N5[4] N6K[0] N6[0]
!!!n7k: 0] N7[0] O1[0] O2K[0] O2[0] O3K[0] O3[0] HÖ[0
!!!RNB: symbol: &szlig; = sz ligature (UTF-8: ÃŸ)
